X: 20913
T: Her answer was mum
%R: reel
B: James Oswald "The Caledonian Pocket Companion" v.2 p.91 #3
Z: 2019 John Chambers <jc:trillian.mit.edu>
M: C
L: 1/8
K: Em
"_Brisk"\
f2 |\
gfef g2ga | fddd d2fd | e2(ef) g2(fe) | .B2.B2 .B2 :: (ga) | bggb d'2(fg) | agfg a2(ba) |
g2fe {g}f2(e^d) | .e2.e2 .e2 :: ba | gebe gebe | fdd'd fdd'd | egfa Tg2fe | .B2.B2 .B2 :|
|: (ga) |\
bgd'd' d'2(fg) | afdf a2(ba) | gbeg faB^d | .e2.e2 .e2 :: (ba) | geBb geBb | fdAa fdAa |
egTfe bgTfe | .B2.B2 .B2 :: (ga) | bgbg BGBG | afaf AFAF | GBeg fbB^d | .e2.E2 .E2 :|


